src/places/scalable/folder-flatpak.svg

<svg width="64" height="64" version="1.1" viewBox="0 0 64 64" xmlns="http://www.w3.org/2000/svg" xmlns:xlink="http://www.w3.org/1999/xlink">
 <defs>
  <style id="current-color-scheme" type="text/css">.ColorScheme-Text {
      color:#333333;
    }
    .ColorScheme-Highlight {
      color:#60c0f0;
    }</style>
  <linearGradient id="linearGradient946" x1="445.28" x2="445.28" y1="181.8" y2="200.07" gradientTransform="matrix(1.4724 0 0 1.4432 -625.58 -239.75)" gradientUnits="userSpaceOnUse">
   <stop stop-color="#ffffff" stop-opacity="0" offset="0"/>
   <stop stop-color="#ffffff" offset="1"/>
  </linearGradient>
 </defs>
 <image x="2.5" y="49.215" width="59" height="10" image-rendering="optimizeQuality" opacity=".5" preserveAspectRatio="none" xlink:href="data:image/png;base64,iVBORw0KGgoAAAANSUhEUgAAADsAAAAKCAYAAAAKAya7AAAACXBIWXMAAA7DAAAOwwHHb6hkAAAA GXRFWHRTb2Z0d2FyZQB3d3cuaW5rc2NhcGUub3Jnm+48GgAAAMFJREFUSInVltEOwyAIRaH1/794 rXvBhF2vDhb6MBIC1gY4gVpV6kQLY6H0iiCRAvEdTfrRPAjUkz5bh4pQZzMq4GMOlm8H0sGPKsai yX3hh9MT1kN3wLs8TFZdYjA30QvWCC9tATrgmvnN1INHIKOgK2D/jAEPwJfpZVbN/4hxJAr5e4mO MRtllbnDQizLw4R9u6yrt8yjjCNMx/ipA4rZVb5vkAhbdkAxif56dnu/dhb9zN4k1ReBJy4WJRcK EZE37lJlFEBdtGUAAAAASUVORK5CYII="/>
 <path class="ColorScheme-Highlight" d="m8.3493 8.996h10.187c2.8348 0 2.9596 0.10961 5.8283 2.3812 2.6345 1.9881 3.5832 1.6252 7.0454 1.6252h24.236c2.4085-0.01263 4.3647 1.9419 4.3542 4.3504v26.293c0.004189 2.4065-1.9477 4.3583-4.3542 4.3541h-47.295c-2.405 0.002095-4.3546-1.9492-4.3504-4.3541v-30.296c-0.0041836-2.405 1.9454-4.3562 4.3504-4.3541z" fill="currentColor"/>
 <path d="m8.3494 8.996h10.187c2.8349 0 2.9596 0.10961 5.8283 2.3812 2.6345 1.9881 3.5833 1.6252 7.0454 1.6252h24.236c2.4085-0.01263 4.3648 1.9419 4.3542 4.3504v26.293c0.0042 2.4065-1.9477 4.3583-4.3542 4.3541h-47.296c-2.405 0.0021-4.3546-1.9492-4.3505-4.3541v-30.296c-0.0042-2.405 1.9454-4.3562 4.3505-4.3541z" fill="#000000" opacity=".2"/>
 <rect class="ColorScheme-Highlight" x="3.9998" y="17.001" width="56" height="38" rx="4.3542" ry="4.2672" fill="currentColor"/>
 <path d="m8.3528 17.001c-2.4114 0-4.3541 1.9012-4.3541 4.2634v1.0016c0-2.3623 1.9427-4.2672 4.3541-4.2672h47.294c2.4114 0 4.3541 1.9049 4.3541 4.2672v-1.0016c0-2.3623-1.9427-4.2634-4.3541-4.2634z" fill="#ffffff" opacity=".08"/>
 <path d="m3.9986 49.737v0.99782c0 2.366 1.9427 4.2672 4.3541 4.2672h47.294c2.4114 0 4.3541-1.9012 4.3541-4.2672v-0.99782c0 2.3623-1.9427 4.2634-4.3541 4.2634h-47.294a4.3012 4.3012 0 0 1-4.3541-4.2634z" opacity=".15"/>
 <path d="m8.3528 16c-2.4114 0-4.3541 1.9049-4.3541 4.2672v0.99782c0-2.3623 1.9427-4.2634 4.3541-4.2634h47.294c2.4114 0 4.3541 1.9012 4.3541 4.2634v-0.99782c0-2.3623-1.9427-4.2672-4.3541-4.2672z" opacity=".05"/>
 <rect x="4" y="17" width="56" height="38" rx="4.3542" ry="4.2672" fill="url(#linearGradient946)" opacity=".2"/>
 <path d="m32 26.9-0.26 0.2-8.74 3.9v12l9 4 9-4v-12zm0 1.17v5.3l-0.5 0.33-7.5-2.14zm8 4v10.33l-8 3.4v-11.2z" fill="#000000" opacity=".15"/>
</svg>

<svg xmlns="http://www.w3.org/2000/svg" xmlns:xlink="http://www.w3.org/1999/xlink" width="64" height="64" viewBox="0 0 64 64"><defs><linearGradient id="linearGradient946" x1="445.28" x2="445.28" y1="181.8" y2="200.07" gradientTransform="matrix(1.4724 0 0 1.4432 -625.58 -239.75)" gradientUnits="userSpaceOnUse"><stop offset="0" stop-color="#fff" stop-opacity="0"/><stop offset="1" stop-color="#fff"/></linearGradient><style id="current-color-scheme" type="text/css">.ColorScheme-Highlight{color:#60c0f0}</style></defs><image xlink:href="data:image/png;base64,iVBORw0KGgoAAAANSUhEUgAAADsAAAAKCAYAAAAKAya7AAAACXBIWXMAAA7DAAAOwwHHb6hkAAAA GXRFWHRTb2Z0d2FyZQB3d3cuaW5rc2NhcGUub3Jnm+48GgAAAMFJREFUSInVltEOwyAIRaH1/794 rXvBhF2vDhb6MBIC1gY4gVpV6kQLY6H0iiCRAvEdTfrRPAjUkz5bh4pQZzMq4GMOlm8H0sGPKsai yX3hh9MT1kN3wLs8TFZdYjA30QvWCC9tATrgmvnN1INHIKOgK2D/jAEPwJfpZVbN/4hxJAr5e4mO MRtllbnDQizLw4R9u6yrt8yjjCNMx/ipA4rZVb5vkAhbdkAxif56dnu/dhb9zN4k1ReBJy4WJRcK EZE37lJlFEBdtGUAAAAASUVORK5CYII=" width="59" height="10" x="2.5" y="49.215" image-rendering="optimizeQuality" opacity=".5" preserveAspectRatio="none"/><path fill="currentColor" d="M8.35 8.996h10.186c2.835 0 2.96.11 5.829 2.381 2.634 1.988 3.583 1.625 7.045 1.625h24.236A4.33 4.33 0 0 1 60 17.352v26.294A4.347 4.347 0 0 1 55.646 48H8.351a4.347 4.347 0 0 1-4.35-4.354V13.35a4.347 4.347 0 0 1 4.35-4.354z" class="ColorScheme-Highlight"/><path d="M8.35 8.996h10.186c2.835 0 2.96.11 5.829 2.381 2.634 1.988 3.583 1.625 7.045 1.625h24.236A4.33 4.33 0 0 1 60 17.352v26.294A4.347 4.347 0 0 1 55.646 48H8.35A4.347 4.347 0 0 1 4 43.646V13.35a4.347 4.347 0 0 1 4.35-4.354z" opacity=".2"/><rect width="56" height="38" x="4" y="17.001" fill="currentColor" class="ColorScheme-Highlight" rx="4.354" ry="4.267"/><path fill="#fff" d="M8.353 17.001c-2.412 0-4.354 1.901-4.354 4.263v1.002c0-2.362 1.942-4.267 4.354-4.267h47.294c2.411 0 4.354 1.905 4.354 4.267v-1.002c0-2.362-1.943-4.263-4.354-4.263z" opacity=".08"/><path d="M3.999 49.737v.998c0 2.366 1.942 4.267 4.354 4.267h47.294c2.411 0 4.354-1.901 4.354-4.267v-.998C60 52.099 58.058 54 55.647 54H8.353a4.3 4.3 0 0 1-4.354-4.263" opacity=".15"/><path d="M8.353 16c-2.412 0-4.354 1.905-4.354 4.267v.998c0-2.362 1.942-4.263 4.354-4.263h47.294c2.411 0 4.354 1.9 4.354 4.263v-.998C60 17.905 58.058 16 55.647 16z" opacity=".05"/><rect width="56" height="38" x="4" y="17" fill="url(#linearGradient946)" opacity=".2" rx="4.354" ry="4.267"/><path d="m32 26.9-.26.2L23 31v12l9 4 9-4V31zm0 1.17v5.3l-.5.33-7.5-2.14zm8 4V42.4l-8 3.4V34.6z" opacity=".15"/></svg>
